assets/img/braze_icons/passport.svg

<svg fill="none" height="24" viewBox="0 0 24 24" width="24" xmlns="http://www.w3.org/2000/svg"><path clip-rule="evenodd" d="m15.2413 1h-6.4826c-.80495-.000012-1.46934-.000021-2.01052.0442-.5621.04592-1.0788.14448-1.56414.39178-.75265.38349-1.36457.99541-1.74806 1.74806-.2473.48534-.34586 1.00204-.39178 1.56414-.04422.54118-.04421 1.20553-.0442 2.01049v10.48263c-.00001.805-.00002 1.4693.0442 2.0105.04592.5621.14448 1.0788.39178 1.5642.38349.7526.99541 1.3645 1.74806 1.748.48534.2473 1.00204.3459 1.56414.3918.54119.0442 1.20554.0442 2.0105.0442h6.48262c.805 0 1.4693 0 2.0105-.0442.5621-.0459 1.0788-.1445 1.5642-.3918.7526-.3835 1.3645-.9954 1.748-1.748.2473-.4854.3459-1.0021.3918-1.5642.0442-.5412.0442-1.2055.0442-2.0105v-10.48262c0-.80496 0-1.46931-.0442-2.0105-.0459-.5621-.1445-1.0788-.3918-1.56414-.3835-.75265-.9954-1.36457-1.748-1.74806-.4854-.2473-1.0021-.34586-1.5642-.39178-.5412-.044221-1.2055-.044212-2.0105-.0442zm-3.2413 11c1.933 0 3.5-1.567 3.5-3.5s-1.567-3.5-3.5-3.5-3.5 1.567-3.5 3.5 1.567 3.5 3.5 3.5zm-2 3c-.55228 0-1 .4477-1 1s.44772 1 1 1h4c.5523 0 1-.4477 1-1s-.4477-1-1-1z" fill="#801ed7" fill-rule="evenodd"/></svg>

<svg width="24" height="24" viewBox="0 0 24 24" fill="none" xmlns="http://www.w3.org/2000/svg">
<path fill-rule="evenodd" clip-rule="evenodd" d="M15.2413 1H8.7587C7.95375 0.999988 7.28936 0.999979 6.74818 1.0442C6.18608 1.09012 5.66938 1.18868 5.18404 1.43598C4.43139 1.81947 3.81947 2.43139 3.43598 3.18404C3.18868 3.66938 3.09012 4.18608 3.0442 4.74818C2.99998 5.28936 2.99999 5.95371 3 6.75867V17.2413C2.99999 18.0463 2.99998 18.7106 3.0442 19.2518C3.09012 19.8139 3.18868 20.3306 3.43598 20.816C3.81947 21.5686 4.43139 22.1805 5.18404 22.564C5.66938 22.8113 6.18608 22.9099 6.74818 22.9558C7.28937 23 7.95372 23 8.75868 23H15.2413C16.0463 23 16.7106 23 17.2518 22.9558C17.8139 22.9099 18.3306 22.8113 18.816 22.564C19.5686 22.1805 20.1805 21.5686 20.564 20.816C20.8113 20.3306 20.9099 19.8139 20.9558 19.2518C21 18.7106 21 18.0463 21 17.2413V6.75868C21 5.95372 21 5.28937 20.9558 4.74818C20.9099 4.18608 20.8113 3.66938 20.564 3.18404C20.1805 2.43139 19.5686 1.81947 18.816 1.43598C18.3306 1.18868 17.8139 1.09012 17.2518 1.0442C16.7106 0.999979 16.0463 0.999988 15.2413 1ZM12 12C13.933 12 15.5 10.433 15.5 8.5C15.5 6.567 13.933 5 12 5C10.067 5 8.5 6.567 8.5 8.5C8.5 10.433 10.067 12 12 12ZM10 15C9.44772 15 9 15.4477 9 16C9 16.5523 9.44772 17 10 17H14C14.5523 17 15 16.5523 15 16C15 15.4477 14.5523 15 14 15H10Z" fill="#801ED7"/>
</svg>
